usr/share/icons/biglinux-icons-material-dark/symbolic/status/network-wired-unavailable-symbolic.svg

<svg id="svg6" version="1.1" viewBox="0 0 22 22" xmlns="http://www.w3.org/2000/svg">
    <style id="current-color-scheme" type="text/css">
        .ColorScheme-Text {
            color:#232629;
        }
        .ColorScheme-NegativeText {
            color:#da4453;
        }
    </style>
    <path id="path1595" class="ColorScheme-Text" d="m3 3v6h2v7c0 1.662 1.338 3 3 3h4v-5h-5v2h2v2h-1c-1.108 0-2-0.892-2-2v-7h2v-6zm6 0v1h9v7h1v-8h-1zm-5 1h3v4h-3zm1 1v2h1v-2zm-2 5v6h1v-6z" fill="currentColor" opacity=".5"/>
    <path id="path1609" class="ColorScheme-NegativeText" d="M 13.84845,13.003252 13,13.851689 15.15156,16.003252 13,18.154815 l 0.84845,0.848437 2.15156,-2.151564 2.15154,2.151564 L 19,18.154815 16.84844,16.003252 19,13.851689 18.15155,13.003252 16.00001,15.154815 Z" fill="currentColor"/>
</svg>

<svg xmlns="http://www.w3.org/2000/svg" id="svg6" version="1.1" viewBox="0 0 22 22">
<style id="current-color-scheme" type="text/css">
.ColorScheme-Contrast{color:#232629}.ColorScheme-NegativeText{color:#da4453}
</style>
<path id="path1595" fill="currentColor" d="M3 3v6h2v7c0 1.662 1.338 3 3 3h4v-5H7v2h2v2H8c-1.108 0-2-.892-2-2V9h2V3zm6 0v1h9v7h1V3h-1zM4 4h3v4H4zm1 1v2h1V5zm-2 5v6h1v-6z" class="ColorScheme-Contrast" opacity=".5"/>
<path id="path1609" fill="currentColor" d="m13.848 13.003-.848.849 2.152 2.151L13 18.155l.848.848L16 16.852l2.152 2.151.848-.848-2.152-2.152L19 13.852l-.848-.849L16 15.155Z" class="ColorScheme-NegativeText"/>
</svg>
